X:34
T:The Tasks
T:The Elfin Knight
B:Bronson
C:Trad
O:Baring-Gould MSS., CXXVIII(4). Sung by Mrs. Knapman
O:Kingsweare June 30, 1893; as learned from her mother in
O:Northamptonshire.  Collected by Baring-Gould.
N:Child 2
N:Lyrics as in 33
M:4/4
L:1/8
K:G
D2 GG G2 G2 | AG E2 D4 |
DE F2 G2 A2 | cB c2 B4 | dd dd B2 F2 |
A2 F2 D4 | D2 DD E2 DD | E2 F2 G4 |]
